blockchains/ethereum/assets/0x0F5D2fB29fb7d3CFeE444a200298f468908cC942/logo.svg

<svg fill="none" height="250" viewBox="0 0 250 250" width="250" xmlns="http://www.w3.org/2000/svg" xmlns:xlink="http://www.w3.org/1999/xlink"><linearGradient id="a" gradientUnits="userSpaceOnUse" x1="213.387" x2="36.6125" y1="36.6125" y2="213.387"><stop offset="0" stop-color="#ff2d55"/><stop offset="1" stop-color="#ffbc5b"/></linearGradient><linearGradient id="b"><stop offset="0" stop-color="#a524b3"/><stop offset="1" stop-color="#ff2d55"/></linearGradient><linearGradient id="c" gradientUnits="userSpaceOnUse" x1="127.598" x2="127.598" xlink:href="#b" y1="81.25" y2="175"/><linearGradient id="d" gradientUnits="userSpaceOnUse" x1="196.324" x2="196.324" xlink:href="#b" y1="131.25" y2="200"/><clipPath id="e"><path d="m0 0h250v250h-250z"/></clipPath><g clip-path="url(#e)"><path d="m125 250c69.036 0 125-55.964 125-125 0-69.0356-55.964-125-125-125-69.0356 0-125 55.9644-125 125 0 69.036 55.9644 125 125 125z" fill="url(#a)"/><g clip-rule="evenodd" fill-rule="evenodd"><path d="m88.5623 81.25v93.75h78.1247z" fill="url(#c)"/><path d="m10.4375 175h78.125v-93.75z" fill="#fff"/><path d="m25 200c7.125 9.437 15.5625 17.875 25 25h150c9.437-7.125 17.875-15.563 25-25z" fill="#fc9965"/><path d="m50 225c20.875 15.688 46.875 25 75 25s54.125-9.312 75-25z" fill="#ff2d55"/><path d="m167.688 131.25v68.75h57.312z" fill="url(#d)"/><path d="m167.688 175h-157.2505c3.875 8.938 8.8125 17.313 14.5625 25h142.75v-25z" fill="#ffbc5b"/><path d="m110.437 200h57.25v-68.75z" fill="#fff"/></g><g fill="#ffc95b"><path d="m167.688 112.5c17.259 0 31.25-13.9911 31.25-31.25s-13.991-31.25-31.25-31.25-31.25 13.9911-31.25 31.25 13.991 31.25 31.25 31.25z"/><path d="m88.5623 62.5c8.6295 0 15.6247-6.9956 15.6247-15.625s-6.9952-15.625-15.6247-15.625-15.625 6.9956-15.625 15.625 6.9955 15.625 15.625 15.625z"/></g></g></svg>

<svg width="250" height="250" viewBox="0 0 250 250" fill="none" xmlns="http://www.w3.org/2000/svg">
<g clip-path="url(#clip0_30_590)">
<path d="M125 250C194.036 250 250 194.036 250 125C250 55.9644 194.036 0 125 0C55.9644 0 0 55.9644 0 125C0 194.036 55.9644 250 125 250Z" fill="url(#paint0_linear_30_590)"/>
<path fill-rule="evenodd" clip-rule="evenodd" d="M88.5623 81.25V175H166.687L88.5623 81.25Z" fill="url(#paint1_linear_30_590)"/>
<path fill-rule="evenodd" clip-rule="evenodd" d="M10.4375 175H88.5625V81.25L10.4375 175Z" fill="white"/>
<path fill-rule="evenodd" clip-rule="evenodd" d="M25 200C32.125 209.437 40.5625 217.875 50 225H200C209.437 217.875 217.875 209.437 225 200H25Z" fill="#FC9965"/>
<path fill-rule="evenodd" clip-rule="evenodd" d="M50 225C70.875 240.688 96.875 250 125 250C153.125 250 179.125 240.688 200 225H50Z" fill="#FF2D55"/>
<path fill-rule="evenodd" clip-rule="evenodd" d="M167.688 131.25V200H225L167.688 131.25Z" fill="url(#paint2_linear_30_590)"/>
<path fill-rule="evenodd" clip-rule="evenodd" d="M167.688 175H10.4375C14.3125 183.938 19.25 192.313 25 200H167.75V175H167.688Z" fill="#FFBC5B"/>
<path fill-rule="evenodd" clip-rule="evenodd" d="M110.437 200H167.687V131.25L110.437 200Z" fill="white"/>
<path d="M167.688 112.5C184.947 112.5 198.938 98.5089 198.938 81.25C198.938 63.9911 184.947 50 167.688 50C150.429 50 136.438 63.9911 136.438 81.25C136.438 98.5089 150.429 112.5 167.688 112.5Z" fill="#FFC95B"/>
<path d="M88.5623 62.5C97.1918 62.5 104.187 55.5044 104.187 46.875C104.187 38.2456 97.1918 31.25 88.5623 31.25C79.9328 31.25 72.9373 38.2456 72.9373 46.875C72.9373 55.5044 79.9328 62.5 88.5623 62.5Z" fill="#FFC95B"/>
</g>
<defs>
<linearGradient id="paint0_linear_30_590" x1="213.387" y1="36.6125" x2="36.6125" y2="213.387" gradientUnits="userSpaceOnUse">
<stop stop-color="#FF2D55"/>
<stop offset="1" stop-color="#FFBC5B"/>
</linearGradient>
<linearGradient id="paint1_linear_30_590" x1="127.598" y1="81.25" x2="127.598" y2="175" gradientUnits="userSpaceOnUse">
<stop stop-color="#A524B3"/>
<stop offset="1" stop-color="#FF2D55"/>
</linearGradient>
<linearGradient id="paint2_linear_30_590" x1="196.324" y1="131.25" x2="196.324" y2="200" gradientUnits="userSpaceOnUse">
<stop stop-color="#A524B3"/>
<stop offset="1" stop-color="#FF2D55"/>
</linearGradient>
<clipPath id="clip0_30_590">
<rect width="250" height="250" fill="white"/>
</clipPath>
</defs>
</svg>
